public/src/images/home/bullet.svg

<svg width="33" height="34" viewBox="0 0 33 34" fill="none" xmlns="http://www.w3.org/2000/svg">
<path fill-rule="evenodd" clip-rule="evenodd" d="M31 17.5C31 26.0601 24.2843 33 15.9998 33C7.71574 33 1 26.0601 1 17.5C1 8.93994 7.71574 2 15.9998 2C24.2843 2 31 8.93994 31 17.5" fill="#DAF4AE"/>
<path fill-rule="evenodd" clip-rule="evenodd" d="M16.1206 2C15.4004 2 14.693 2.05611 14 2.1595C21.2126 3.23222 26.7588 9.6898 26.7588 17.5002C26.7588 25.3102 21.2126 31.7678 14 32.8405C14.693 32.9439 15.4004 33 16.1206 33C24.3379 33 31 26.0604 31 17.5002C31 8.9396 24.3379 2 16.1206 2" fill="#AFD371"/>
<mask id="mask0" mask-type="alpha" maskUnits="userSpaceOnUse" x="0" y="0" width="33" height="34">
<path fill-rule="evenodd" clip-rule="evenodd" d="M0 0.368652H32.6421V34H0V0.368652Z" fill="white"/>
</mask>
<g mask="url(#mask0)">
<path fill-rule="evenodd" clip-rule="evenodd" d="M16.3209 3.018C8.73943 3.018 2.57143 9.37291 2.57143 17.1845C2.57143 24.9957 8.73943 31.3506 16.3209 31.3506C23.9023 31.3506 30.0707 24.9957 30.0707 17.1845C30.0707 9.37291 23.9023 3.018 16.3209 3.018M16.3209 34C7.32172 34 0 26.4564 0 17.1845C0 7.91224 7.32172 0.368652 16.3209 0.368652C25.3204 0.368652 32.6421 7.91224 32.6421 17.1845C32.6421 26.4564 25.3204 34 16.3209 34" fill="#4C4372"/>
</g>
</svg>

<svg width="33" height="34" fill="none" xmlns="http://www.w3.org/2000/svg"><path fill-rule="evenodd" clip-rule="evenodd" d="M31 17.5C31 26.06 24.284 33 16 33 7.716 33 1 26.06 1 17.5 1 8.94 7.716 2 16 2c8.284 0 15 6.94 15 15.5" fill="#DAF4AE"/><path fill-rule="evenodd" clip-rule="evenodd" d="M16.12 2c-.72 0-1.427.056-2.12.16 7.213 1.072 12.759 7.53 12.759 15.34S21.213 31.768 14 32.84c.693.104 1.4.16 2.12.16C24.339 33 31 26.06 31 17.5 31 8.94 24.338 2 16.12 2" fill="#AFD371"/><mask id="a" maskUnits="userSpaceOnUse" x="0" y="0" width="33" height="34"><path fill-rule="evenodd" clip-rule="evenodd" d="M0 .369h32.642V34H0V.369z" fill="#fff"/></mask><g mask="url(#a)"><path fill-rule="evenodd" clip-rule="evenodd" d="M16.32 3.018c-7.58 0-13.749 6.355-13.749 14.166 0 7.812 6.168 14.167 13.75 14.167 7.581 0 13.75-6.355 13.75-14.166 0-7.812-6.169-14.167-13.75-14.167m0 30.982C7.32 34 0 26.456 0 17.184 0 7.912 7.322.37 16.32.37c9 0 16.322 7.543 16.322 16.816C32.642 26.456 25.32 34 16.321 34" fill="#4C4372"/></g></svg>
